X: 25444
T: Marcha Do Entrelazado De Allariz
R: jig
M: 6/8
K: Gmajor
d3/2e/d1 d3/2e/d1|c3/2d/c B3/2A/G1|d3/2e/d1 d3/2e/d1|c3/2d/c1 B3/2A/G1|
c3/2G/c1 c3/2d/c1|B3/2c/B1 A3/2G/A1|B3 B3/2c/B1|A/B3/2A1G3:|
G3/2B/d1 G3/2B/d1|B3/2d/g1 e3|A3/2d/c1 B3/2A/G1|F/d3/2c1 B3/2A/G1|
G3/2B/d1 G3/2B/d1|B3/2d/g1 e3|A3/2d/c1 B3/2A/G1 A/c3/2B1 G3:|

